X:461
T:La Dragona
Z:Jack Campin, http://www.campin.me.uk/
F:Jack Campin's Nine-Note Tunebook
% last edit 03-02-2013
S:CD WKPD-95 no 38, Ball de Bastons Catalunya, track 19
S:Bastoners de Vilafranca del Penedes
N:for the gralla (small shawm), rattle accompaniment
M:2/4
L:1/8
Q:1/4=212
K:F
P:intro
  zC|FG AB| c2  cd|cB AG|B2 \
  AC|FG AB| c2  cd|cB AG|F2||
P:dance
|:zC|FG AB| c2  cd|cB AG|B2 \
  AC|FG AB| c2  cd|cB AG|F2  
  zC|F2 C2| F3   A|GA Bc|A>G\
  FC|F2 C2| F3   A|GA BG|F2
  zA|GA Bc|TA>G FA|GA Bc|A3 \
   A|GA Bc|TA>G FA|GA BG|F2:|

